X:1
T:Title
%%score { ( 1 3 ) | ( 2 4 5 ) }
L:1/8
M:4/4
K:Bb
V:1 treble nm="Grand Piano"
V:3 treble 
V:2 bass 
V:4 bass 
V:5 bass 
V:1
 z4 z2[Q:1/4=100] [DF]>[DF] | [Fd]>[Fd] [Fd]>[Ec] [DB]2 [DF]>[DF] | %2
 [EG]>[EG] [GB]>[EG] [DF]2 [DB]>[Ec] | [Fd]>[Fd] [Fd]>[Ec] [DB]2 [DB]>[Fd] | [Fc]6 [DF]>[DF] | %5
 [Fd]>[Fd] [Fd]>[Ec] [DB]2 [DF]>[DF] | [EG]>[EG] [GB]>[EG] [DF]2 [DB]>[Ec] | %7
 [Fd]>[Ge] [Fd]>c B>B A>A |[M:3/4] [DB]6 |[M:1/4] [DF]>[DF] |[M:4/4] z/ B3/2- B4 z2 | %11
 z/ c3/2- c4 z2 | z/ d3/2- d4 z2 | [Fc]6 z2 | [Fd]>[Fd] [Fd]>[Ec] [DB]2 [DF]>[DF] | %15
 [EG]>[EG] [GB]>[EG] [DF]2 [DB]>[Ec] | [Fd]>[Ge] [Fd]>c B2 A2 |[M:3/4] [DB]6 |] %18
V:2
 z4 z2 [B,,B,]>[B,,B,] | [B,,B,]>[B,,B,] [B,,B,]>[B,,B,] [B,,F,]2 [B,,B,]>[B,,B,] | %2
 [E,B,]>[E,B,] [E,B,]>[E,B,] [B,,B,]2 [B,,F,]>[B,,F,] | %3
 [B,,B,]>[B,,B,] [B,,B,]>[B,,F,] [B,,F,]2 [B,,F,]>[B,,B,] | [F,A,]6 [B,,B,]>[B,,B,] | %5
 [B,,B,]>[B,,B,] [B,,B,]>[B,,F,] [B,,F,]2 [B,,B,]>[B,,B,] | %6
 [E,B,]>[E,B,] [E,B,]>[E,B,] [B,,B,]2 [B,,F,]>[B,,F,] | %7
 [B,,B,]>[B,,B,] [B,,B,]>[E,G,E] [F,D]>[F,D] [F,C]>[F,C] |[M:3/4] [B,,F,]6 | %9
[M:1/4] [B,,B,]>[B,,B,] |[M:4/4] z/ D3/2- D4 z2 | z/ E3/2- E4 z2 | z/ F3/2- F4 z2 | %13
 [F,A,]>F, F,>F, F,>E, D,>C, | [B,,B,]>[B,,B,] [B,,B,]>[B,,F,] [B,,F,]2 [B,,B,]>[B,,B,] | %15
 [E,B,]>[E,B,] [E,B,]>[E,B,] [B,,B,]2 [B,,F,]>[B,,F,] | %16
 [B,,B,]>[B,,B,] [B,,B,]>[E,G,E] [F,D]2 [F,C]2 |[M:3/4] [B,,F,]6 |] %18
V:3
 x8 | x8 | x8 | x8 | x8 | x8 | x8 | x8 |[M:3/4] x6 |[M:1/4] x2 |[M:4/4] .[DB]>B, B,>B, B,2 A>B | %11
 .c>A, A,>A, A,2 [DB]>[Ec] | .[Fd]>B, B,>B, B,2 [Ge]>[Fd] | z z/ A,/ A,>A, A,2 [B,F]>[A,F] | x8 | %15
 x8 | x8 |[M:3/4] x6 |] %18
V:4
 x8 | x8 | x8 | x8 | x8 | x8 | x8 | x8 |[M:3/4] x6 |[M:1/4] x2 | %10
[M:4/4] z z/ B,,/ B,,>B,, B,,2 [F,C]>[F,D] | [F,A,]2 z2 z4 | [B,,B,]2 z2 z4 | x8 | x8 | x8 | x8 | %17
[M:3/4] x6 |] %18
V:5
 x8 | x8 | x8 | x8 | x8 | x8 | x8 | x8 |[M:3/4] x6 |[M:1/4] x2 |[M:4/4] [B,,B,]2 z2 z4 | %11
 .E>F, F,>F, F,2 [B,,B,]>[B,,B,] | z z/ B,,/ B,,>B,, B,,2 [B,,B,]>[B,,B,] | x8 | x8 | x8 | x8 | %17
[M:3/4] x6 |] %18

